X:1
T:Iste Sanctus - Victoria
T:James Gibb editions
T:#
%%score [ 1 { 2 | 3 } 4 ]
L:1/8
Q:1/4=200
M:none
K:C
V:1 treble nm="Alto" snm="A"
V:2 treble-8 nm="Tenor I" snm="T"
V:3 treble-8 
V:4 bass nm="Bass" snm="B"
V:1
"^Iste Sanctus""^Tomás Luis de Victoria\n(1548-1611)" z16 | z16 | z16 | z16 | G16 | G8 A8 | %6
w: ||||I-|ste San-|
 G8 z4 G4 | c12 B4 | A4 G4 (A8- | A4 G4) F8 | z4 A4 c6 B2 | A4 G4 (F4 E4 | D16) | D8 z8 | %14
w: ctus pro|le- ge|De- i su\-|* * i|pro le- ge|De- i su\- *||i|
 z4 G4 G8 | E8 A8 | F8 D8 | (G8 F8) | E8 z8 | z16 | z4 G4 A4 c4 | B4 A4 c8 | d8 G4 G4 | A4 B4 c8 | %24
w: cer- ta-|vit us-|que ad|mor\- *|tem,||et a ver-|bis im- pi-|o- rum non|ti- mu- it,|
 z8 z4 A4 | B4 ^c4 d8 | z4 A4 A4 A4 | G4 A4 A8 | G4 A8 A4 | A8 A8 | G8 D4 (G4- | G2 E2 A4 G8) | %32
w: non|ti- mu- it:|fun- da- tus|e- nim e-|rat su- pra|fir- mam|pe- tram, pe\-||
 F8 z4 A4 | A4 A4 G4 E4 | G8 C4 c4- | c4 c4 c8 | A4 (d6 cB A4) | G8 z8 | z4 c4 c4 c4 | B4 c4 c8 | %40
w: tram, fun-|da- tus e- nim|e- rat su\-|* pra fir-|mam pe\- * * *|tram,|fun- da- tus|e- nim e-|
 G4 c4 c4 (c4- | c4 B2 A2 B4) B4 | (A4 G8 ^F4) | G4 D4 E4 (G4- | %44
w: rat su- pra fir\-|* * * * mam|pe\- * *|tram, su- pra fir\-|
[Q:1/4=199] G2[Q:1/4=197] F2)[Q:1/4=195] E4[Q:1/4=190] D8 | %45
w: * * * mam|
[Q:1/4=185] (E6[Q:1/4=182] F2[Q:1/4=180] G2[Q:1/4=179] C2[Q:1/4=177] c4- | %46
w: pe\- * * * *|
[Q:1/4=174] c4[Q:1/4=171] B4)[Q:1/4=170] !fermata!B8 |] %47
w: * * tram.|
V:2
 d16 | d8 e8 | d8 z4 d4 | g12 f4 | e4 d4 (e6 d2 | e2 f2 g6 f2 f4- | f4 e2 d2) e8 | z4 c4 f8- | %8
w: I-|ste San-|ctus pro|le- ge|De- i su\- *||* * * i,|pro le\-|
 f4 e4 (f4 F2 G2 | A2 B2 c2 G2 A4) _B4 | (A2 =B2 c2 d2 e4) c4 | z4 G4 c6 B2 | A4 G4 A8 | B8 z4 d4 | %14
w: * ge De\- * *|* * * * * i|su\- * * * * i,|pro le- ge|De- i su-|i cer-|
 d4 B8 e4- | e4 c8 A4- | A4 (d6 c2 B2 A2 | G6 E2 F8) | G4 g4 f4 e4 | d4 f8 e4 | d6 e2 f4 g4 | %21
w: ta- vit us\-|* que ad|* mor\- * * *||tem, et a ver-|bis im- pi-|o\- * * *|
 f8 z4 g4 | f4 d4 e4 g4 | f4 d4 e4 a4 | g4 e4 f4 e4 | g4 g4 f8 | z16 | z4 f4 f4 f4 | e4 f4 f4 c4 | %29
w: rum non|ti- mu- it, non|ti- mu- it, non|ti- mu- it, non|ti- mu- it:||fun- da- tus|e- nim e- rat|
 f4 f4 f8 | d4 (g6 fe d4 | e4 f8) e4 | z4 f4 f4 f4 | e4 c4 e8 | d4 e8 e4 | (g2 f2 e2 d2 c2 B2 A4- | %36
w: su- pra fir-|mam pe\- * * *|* * tram,|fun- da- tus|e- nim e-|rat su- pra|fir\- * * * * * *|
 A4) A4 d8 | B4 e4 e4 e4 | d4 e4 e8 | d4 e8 e4 | e16 | d8 (d6 e2 | ^f4 g4 a4 d4) | d4 B4 c4 (e4- | %44
w: * mam pe-|tram, fun- da- tus|e- nim e-|rat su- pra|fir-|mam pe\- *||tram, su- pra fir\-|
 e2 d2 c8) B4 | (c6 d2 e8) | !fermata!d16 |] %47
w: * * * mam|pe\- * *|tram.|
V:3
 z16 | z16 | G16 | G8 A8 | G4 G4 c8- | c4 B4 A4 F4 | c8 G8- | G8 z8 | c16 | c8 d8 | c8 z4 A4 | %11
w: ||I-|ste San-|ctus pro le\-|* ge De- i|su- i,||i-|ste San-|ctus pro|
 c6 B2 A4 G4 | (^F4 G8 F4) | G4 d4 d8 | B8 e8 | c8 A8 | d6 c2 B2 A2 B4- | (B2 G2 c8 B4) | %18
w: le- ge De- i|su\- * *|i cer- ta-|vit us-|que ad|mor\- * * * *||
 c4 G4 A4 c4 | B4 A4 B4 (c4- | c4 B4 c8) | (d4 c2 B2 A4) G4 | A4 B4 c8 | z8 z4 A4 | B4 ^c4 d4 =c4 | %25
w: tem, et a ver-|bis im- pi- o\-||rum * * * non|ti- mu- it,|non|ti- mu- it, non|
 d4 e4 A8 | c16- | c16 | c16 | d16 | B16 | c16 | A16 | c16 | G16 | E16 | ^F16 | G16- | G16 | G16 | %40
w: ti- mu- it:|fun\-|||da-|tus|e-|nim|e-|rat|su-|pra|fir\-|||
 G16- | G16 | A16 | G16- | G16 | G16 | !fermata!G16 |] %47
w: mam||pe-|tram.||||
V:4
 z16 | z16 | z16 | z16 | z16 | z16 | C,16 | C,8 D,8 | C,4 C,4 F,8- | F,4 E,4 D,4 _B,,4 | %10
w: ||||||I-|ste San-|ctus pro le\-|* ge De- i|
 F,8 C,4 F,4 | F,4 E,4 F,4 C,4 | D,16 | G,,8 G,8 | G,8 E,8 | A,8 F,8 | D,8 (G,6 F,2 | E,8 D,8) | %18
w: su- i, pro|le- ge De- i|su-|i cer-|ta- vit|us- que|ad mor\- *||
 C,8 z8 | z16 | G,8 F,4 E,4 | D,4 F,8 E,4 | D,8 C,4 E,4 | F,4 G,4 C,4 F,4 | G,4 A,4 D,4 A,4 | %25
w: tem,||et a ver-|bis im- pi-|o- rum non|ti- mu- it, non|ti- mu- it, non|
 G,4 E,4 (D,2 E,2 F,2 G,2 | A,4) F,4 F,4 F,4 | E,4 F,4 F,8 | C,4 F,8 F,4 | D,8 D,8 | G,16 | C,16 | %32
w: ti- mu- it: * * *|* fun- da- tus|e- nim e-|rat su- pra|fir- mam|pe-|tram,|
 z4 D,4 D,4 D,4 | C,4 A,,4 C,8 | B,,4 C,8 C,4 | C,8 A,,8 | D,16 | G,,4 C,4 C,4 C,4 | B,,4 C,4 C,8 | %39
w: fun- da- tus|e- nim e-|rat su- pra|fir- mam|pe-|tram, fun- da- tus|e- nim e-|
 G,,4 C,8 C,4 | C,16 | G,,16 | D,16 | G,,8 C,8 | E,8 G,4 G,,4 | C,16 | !fermata!G,,16 |] %47
w: rat su- pra|fir-|mam|pe-|tram, su-|pra fir- mam|pe-|tram.|

